X:1
T:La Vie En Rose
C:Piaf-Gugliemi
L:1/8
M:C
I:linebreak $
K:Ab
"Ab" z4"F7" z4 |"Bbm" z4"Eb7" z4 |"Ab" z4"Aø" z4 |"Bbm" z4"Eb7" z4 |$"Ab" A3 G FECA |
G3 F ECA,G |"Ab6" F3 E CG,A,G |"Bbm" F4"Eb7" E4 |$"Bbm" B3 A GFDA |"Eb7" G3 F EDB,G |
"Bbm" F3 E"Eb7" D=A,B,G |"Abo" F4"Eb7" (3:2:1E4 |$"Ab" A3 G FECA | G3 F ECA,G |
"Ab6" F3 E"Ab7" CG,A,A |"Db" A6 A2 |$"Db" (3B2 B2 A2"Dbm" (3B2 B2 A2 |"Ab" (3B2 B2 A2"Fm" E3 A |
"Bb7" (3B2 B2 A2 (3B2 B2 A2 |"Bbm" (3B2 B2 A2"Eb7" c2 B2 |$"Ab" A3 G FECA | G3 F ECA,G |
"Bbm" F2 E2"Eb7" F2 G2 |"Ab" A8 |]

